data/xanh-mono.svg

<svg width="63" height="16.66" viewBox="0 0 63 16.66" xmlns="http://www.w3.org/2000/svg"><path transform="translate(0 13.58) scale(.014 -.014)" d="M16 0V34H87L213 363L81 706H10V740H223V706H153L254 443L355 706H300V740H458V706H387L270 402L412 34H483V0H263V34H340L229 321L119 34H179V0Z"/><path transform="translate(7 13.58) scale(.014 -.014)" d="m184-10q-55 0-86.5 33.5t-31.5 81.5q0 45 22.5 74.5t56.5 49.5 67 35l102 47v97q0 49-31 77t-78 28q-43 0-71-21t-39-41q23-24 34.5-38t11.5-33q0-17-11.5-32t-34.5-15q-22 0-34.5 15.5t-12.5 38.5 11.5 50.5 35 53.5 59.5 42.5 85 16.5q53 0 84.5-21t45-53.5 13.5-67.5v-324q0-42 29-42 19 0 30 15.5t15 30.5l18-6q-3-20-14-41.5t-29.5-36-45.5-14.5q-30 0-50.5 20t-20.5 62q-8-18-26-37t-44-32-60-13zm-57 138q0-39 24-66.5t64-27.5q26 0 46.5 11.5t34 27.5 18.5 31v183l-95-47q-23-11-44-24.5t-34.5-33.5-13.5-54z"/><path transform="translate(14 13.58) scale(.014 -.014)" d="m14 0v28l84 8v452h-102v24l102 13 44 25h24v-81h3q8 18 25 36.5t43 31.5 60 13q49 0 77.5-30.5t28.5-89.5v-396h84v-34h-152v424q0 80-70 80-28 0-48.5-13t-33-32.5-17.5-37.5v-385l99-8v-28z"/><path transform="translate(21 13.58) scale(.014 -.014)" d="m14 0v34h84v654h-102v24l102 13 44 25h24v-281h3q8 18 25 36.5t43 31.5 60 13q49 0 77.5-30.5t28.5-89.5v-396h84v-34h-152v424q0 80-70 80-28 0-48.5-13t-33-32.5-17.5-37.5v-387h59v-1h40v-33z"/><path transform="translate(35 13.58) scale(.014 -.014)" d="M1 0V34H61V706H1V740H99L244 116L389 740H502V706H438V34H502V0H316V34H370V526L248 0H217L95 526V34H159V0Z"/><path transform="translate(42 13.58) scale(.014 -.014)" d="m250-10q-50 0-87 23.5t-61.5 64-36.5 90.5-12 102q0 53 12 102.5t36.5 90 61.5 64 87 23.5 87-23.5 61.5-64 36.5-90 12-102.5q0-52-12-102t-36.5-90.5-61.5-64-87-23.5zm0 32q63 0 95 52.5t32 145.5v100q0 93-32 145.5t-95 52.5-95-52.5-32-145.5v-100q0-93 32-145.5t95-52.5z"/><path transform="translate(49 13.58) scale(.014 -.014)" d="m14 0v28l84 8v452h-102v24l102 13 44 25h24v-81h3q8 18 25 36.5t43 31.5 60 13q49 0 77.5-30.5t28.5-89.5v-396h84v-34h-152v424q0 80-70 80-28 0-48.5-13t-33-32.5-17.5-37.5v-385l99-8v-28z"/><path transform="translate(56 13.58) scale(.014 -.014)" d="m250-10q-50 0-87 23.5t-61.5 64-36.5 90.5-12 102q0 53 12 102.5t36.5 90 61.5 64 87 23.5 87-23.5 61.5-64 36.5-90 12-102.5q0-52-12-102t-36.5-90.5-61.5-64-87-23.5zm0 32q63 0 95 52.5t32 145.5v100q0 93-32 145.5t-95 52.5-95-52.5-32-145.5v-100q0-93 32-145.5t95-52.5z"/></svg>

<?xml version="1.0" encoding="utf-8" ?>
<svg baseProfile="tiny" height="100%" version="1.2" width="100%" xmlns="http://www.w3.org/2000/svg" xmlns:ev="http://www.w3.org/2001/xml-events" xmlns:xlink="http://www.w3.org/1999/xlink"><defs /><g><path d="M16 0V34H87L213 363L81 706H10V740H223V706H153L254 443L355 706H300V740H458V706H387L270 402L412 34H483V0H263V34H340L229 321L119 34H179V0Z" transform="translate(0.0, 72) scale(0.072, -0.072)" /><path d="M184 -10Q129 -10 97.5 23.5Q66 57 66 105Q66 150 88.5 179.5Q111 209 145.0 229.0Q179 249 212 264L314 311V408Q314 457 283.0 485.0Q252 513 205 513Q162 513 134.0 492.0Q106 471 95 451Q118 427 129.5 413.0Q141 399 141 380Q141 363 129.5 348.0Q118 333 95 333Q73 333 60.5 348.5Q48 364 48 387Q48 410 59.5 437.5Q71 465 94.5 491.0Q118 517 154.0 533.5Q190 550 239 550Q292 550 323.5 529.0Q355 508 368.5 475.5Q382 443 382 408V84Q382 42 411 42Q430 42 441.0 57.5Q452 73 456 88L474 82Q471 62 460.0 40.5Q449 19 430.5 4.5Q412 -10 385 -10Q355 -10 334.5 10.0Q314 30 314 72Q306 54 288.0 35.0Q270 16 244.0 3.0Q218 -10 184 -10ZM127 128Q127 89 151.0 61.5Q175 34 215 34Q241 34 261.5 45.5Q282 57 295.5 73.0Q309 89 314 104V287L219 240Q196 229 175.0 215.5Q154 202 140.5 182.0Q127 162 127 128Z" transform="translate(36.0, 72) scale(0.072, -0.072)" /><path d="M14 0V28L98 36V488H-4V512L98 525L142 550H166V469H169Q177 487 194.0 505.5Q211 524 237.0 537.0Q263 550 297 550Q346 550 374.5 519.5Q403 489 403 430V34H487V0H335V424Q335 504 265 504Q237 504 216.5 491.0Q196 478 183.5 458.5Q171 439 166 421V36L265 28V0Z" transform="translate(72.0, 72) scale(0.072, -0.072)" /><path d="M14 0V34H98V688H-4V712L98 725L142 750H166V469H169Q177 487 194.0 505.5Q211 524 237.0 537.0Q263 550 297 550Q346 550 374.5 519.5Q403 489 403 430V34H487V0H335V424Q335 504 265 504Q237 504 216.5 491.0Q196 478 183.5 458.5Q171 439 166 421V34H225V33H265V0Z" transform="translate(108.0, 72) scale(0.072, -0.072)" /><path d="M1 0V34H61V706H1V740H99L244 116L389 740H502V706H438V34H502V0H316V34H370V526L248 0H217L95 526V34H159V0Z" transform="translate(180.0, 72) scale(0.072, -0.072)" /><path d="M250 -10Q200 -10 163.0 13.5Q126 37 101.5 77.5Q77 118 65.0 168.0Q53 218 53 270Q53 323 65.0 372.5Q77 422 101.5 462.5Q126 503 163.0 526.5Q200 550 250 550Q300 550 337.0 526.5Q374 503 398.5 462.5Q423 422 435.0 372.5Q447 323 447 270Q447 218 435.0 168.0Q423 118 398.5 77.5Q374 37 337.0 13.5Q300 -10 250 -10ZM250 22Q313 22 345.0 74.5Q377 127 377 220V320Q377 413 345.0 465.5Q313 518 250 518Q187 518 155.0 465.5Q123 413 123 320V220Q123 127 155.0 74.5Q187 22 250 22Z" transform="translate(216.0, 72) scale(0.072, -0.072)" /><path d="M14 0V28L98 36V488H-4V512L98 525L142 550H166V469H169Q177 487 194.0 505.5Q211 524 237.0 537.0Q263 550 297 550Q346 550 374.5 519.5Q403 489 403 430V34H487V0H335V424Q335 504 265 504Q237 504 216.5 491.0Q196 478 183.5 458.5Q171 439 166 421V36L265 28V0Z" transform="translate(252.0, 72) scale(0.072, -0.072)" /><path d="M250 -10Q200 -10 163.0 13.5Q126 37 101.5 77.5Q77 118 65.0 168.0Q53 218 53 270Q53 323 65.0 372.5Q77 422 101.5 462.5Q126 503 163.0 526.5Q200 550 250 550Q300 550 337.0 526.5Q374 503 398.5 462.5Q423 422 435.0 372.5Q447 323 447 270Q447 218 435.0 168.0Q423 118 398.5 77.5Q374 37 337.0 13.5Q300 -10 250 -10ZM250 22Q313 22 345.0 74.5Q377 127 377 220V320Q377 413 345.0 465.5Q313 518 250 518Q187 518 155.0 465.5Q123 413 123 320V220Q123 127 155.0 74.5Q187 22 250 22Z" transform="translate(288.0, 72) scale(0.072, -0.072)" /></g></svg>
